!!!SOCIAL_FUNCTION:	songs used in the treatment of the sick
!!!PDT:	1929
!!!OTL: No_57_Brown_Lizard.krn
!!!REG: Southwest
!!!LANG: Non-Tone
!!!LING_GROUP: Uto-Aztecan
**kern
*staff1
*clefF4
*k[b-e-a-]
*M3/4
8E-\L
16.F\L
32F\JJk
=1
4G\
12G\L
12G\
12G\J
8F\L
8E-\J
=2||
*M2/4
8G\L
8G\J
8F\L
8E-\J
=3
4E-\
4C/
=4
8.F\L
16G\Jk
8G\L
[8F\J
=5
4F;\]
8A-\L
8G\J
=6
(8G\L
8E-\J)
4F\
=7||
*M3/4
8E-/L
8C/J
8BB-/L
8F/J
8G\L
8F\J
=8
8E-\L
8E-\J
8C/L
8E-/J
8F\L
16E-\L
16E-\JJ
=9
8E-\L
16E-\L
16E-\JJ
2E-\
==
*-
